file/siberia-airlines.svg

<svg clip-rule="evenodd" fill-rule="evenodd" stroke-linejoin="round" stroke-miterlimit="1.41421" viewBox="0 0 560 400" xmlns="http://www.w3.org/2000/svg"><g transform="matrix(2.4161 0 0 2.4161 100.002 135.715)"><path d="m144.978 25.259-.254.521c-.351.722-1.121 1.227-1.872 1.227h-7.784c-.563 0-.985-.516-.872-1.068l.635-2.863c.085-.414.449-.712.872-.712h8.5c.607 0 .901.343 1.021.547.118.2-.009 1.774-.246 2.348zm-36.523-4.707c.108-.529.626-.959 1.155-.959h5.917c1.168 0 2.171.508 2.754 1.392.582.884.683 2.054.275 3.209l-.485 1.377c-.304.86-1.117 1.436-2.03 1.436h-7.13c-.916 0-1.601-.839-1.418-1.736zm-52.178 2.701c.117-.573.621-.985 1.206-.985h8.447c.561 0 1.022.237 1.295.667.275.43.31.972.101 1.526l-.662 1.75c-.181.479-.64.796-1.151.796h-8.494c-.779 0-1.361-.714-1.206-1.477zm92.285-2.624c-.726-1.229-2.042-1.933-3.611-1.933h-9.227l1.424-7.035c.228-1.113-.624-2.156-1.761-2.156-.854 0-1.59.601-1.76 1.438l-2.88 13.917c-.254 1.249-1.353 2.147-2.628 2.147h-6.845l.801-2.274c.78-2.211.588-4.45-.527-6.144-1.115-1.693-3.037-2.665-5.273-2.665h-5.917c-2.551 0-5.051 2.077-5.571 4.628l-1.316 6.455h-6.339c-1.213 0-2.122-1.113-1.879-2.302l1.349-6.618c.227-1.114-.624-2.156-1.761-2.156-.854 0-1.59.601-1.761 1.438l-1.646 8.077c-.186.908-.985 1.561-1.912 1.561h-4.376c-1.233 0-2.157-1.131-1.91-2.34l1.341-6.58c.228-1.114-.624-2.156-1.761-2.156-.854 0-1.59.601-1.761 1.438l-1.652 8.103c-.182.893-.968 1.535-1.879 1.535h-7.438l.725-1.916c.611-1.616.503-3.262-.296-4.517s-2.198-1.974-3.837-1.974h-9.452l.519-2.542c.126-.622.734-1.127 1.356-1.127l11.133-.273c.872 0 1.623-.614 1.797-1.468.232-1.137-.636-2.201-1.797-2.201l-10.385.273c-2.644 0-5.234 2.152-5.773 4.796l-2.233 10.949h-6.262c-1.213 0-2.122-1.113-1.879-2.302l1.346-6.599c.227-1.113-.625-2.156-1.762-2.156-.854 0-1.59.601-1.761 1.438l-1.643 8.058c-.185.908-.984 1.561-1.91 1.561h-4.376c-1.234 0-2.158-1.131-1.911-2.34l1.317-6.459c.227-1.114-.624-2.156-1.761-2.156-.854 0-1.591.601-1.761 1.438l-1.628 7.982c-.182.893-.968 1.535-1.879 1.535h-16.486c-3.366 0-5.781-2.398-5.742-5.703.023-2.067.995-4.183 2.667-5.807 1.671-1.622 3.837-2.553 5.942-2.553h7.586c.485 0 .848.444.751.919l-.463 2.274c-.228 1.114.624 2.157 1.761 2.157.854 0 1.59-.601 1.761-1.439l.83-4.07c.394-1.935-.859-3.51-2.795-3.51h-8.683c-3.203 0-6.499 1.417-9.042 3.887-2.544 2.47-4.023 5.69-4.06 8.836-.057 5.028 3.618 8.677 8.738 8.677h93.985l-1.467 7.194c-.227 1.113.624 2.156 1.761 2.156.854 0 1.59-.601 1.761-1.438l1.351-6.624c.153-.749.812-1.288 1.577-1.288h34.398c2.385 0 4.83-1.602 5.946-3.895l.278-.57.039-.086c.667-1.529.92-4.266.195-5.495z" fill="#bed800"/><path d="m88.943 41.348h-1.126c-.603 0-.869.198-1.011.766l-.107.424c-.123.489-.296.859-.564 1.229h-1.823c.036-.039.057-.067.074-.079.039-.054.076-.093.114-.133.25-.304.397-.621.62-1.401.24-.793.39-1.018.953-1.336-.551-.264-.787-.872-.61-1.572.269-1.071 1.327-1.865 2.52-1.865h3.714l-1.606 6.386h-1.757zm-10.656-3.967h1.743l-.951 3.781 3.566-3.781h1.649l-1.607 6.386h-1.756l.968-3.847-3.583 3.847h-1.635zm-7.792 0h1.756l-.565 2.248h2.386l.566-2.248h1.756l-1.606 6.386h-1.757l.689-2.737h-2.387l-.688 2.737h-1.756zm-4.867 6.386c-.02-.29-.007-.397.049-.621-.682.528-1.46.793-2.344.793-1.421 0-2.083-.727-1.781-1.931.2-.793.732-1.362 1.546-1.665.402-.159.794-.225 1.792-.357 1.438-.172 1.632-.251 1.762-.768.143-.567-.166-.832-.957-.832-.818 0-1.216.251-1.513.952h-1.676c.46-1.401 1.662-2.129 3.525-2.129 1.019 0 1.743.212 2.139.609.354.357.391.687.158 1.612-.04.16-.043.173-.243.913-.063.251-.166.661-.323 1.229l-.119.477c-.23.912-.273 1.295-.205 1.718zm-10.048-6.386h5.685l-1.606 6.386h-1.756l1.253-4.985h-2.171l-1.254 4.985h-1.757zm-5.188 6.386 1.177-4.681-2.411 4.681h-1.394l-.03-4.681-1.177 4.681h-1.649l1.606-6.386h2.346l.033 4.668 2.421-4.668h2.374l-1.607 6.386zm-6.21-3.199c-.512 2.035-2.176 3.371-4.186 3.371-2.025 0-3.027-1.349-2.521-3.358.512-2.036 2.202-3.372 4.267-3.372 1.957 0 2.946 1.349 2.44 3.359zm-8.627-3.187h2.012l-2.878 2.327 1.419 4.059h-2.038l-.871-2.882-.87.74-.538 2.142h-1.757l1.607-6.386h1.756l-.592 2.354zm-8.808 6.386c-.021-.29-.008-.397.049-.621-.682.528-1.46.793-2.344.793-1.422 0-2.084-.727-1.781-1.931.199-.793.732-1.362 1.545-1.665.402-.159.794-.225 1.793-.357 1.438-.172 1.632-.251 1.762-.768.143-.567-.166-.832-.958-.832-.818 0-1.216.251-1.513.952h-1.676c.46-1.401 1.662-2.129 3.526-2.129 1.019 0 1.743.212 2.139.609.353.357.391.687.158 1.612-.04.16-.043.173-.243.913-.063.251-.166.661-.323 1.229l-.119.477c-.23.912-.273 1.295-.205 1.718zm-10.369-6.386h1.743l-.951 3.781 3.566-3.781h1.649l-1.607 6.386h-1.756l.968-3.847-3.583 3.847h-1.635zm-7.363 0h3.62c.63 0 .935.066 1.211.251.422.291.584.82.434 1.415-.173.688-.627 1.163-1.428 1.467.812.239 1.037.622.838 1.415-.18.714-.577 1.23-1.191 1.534-.445.225-.827.304-1.537.304h-3.554zm-4.867 6.386c-.021-.29-.007-.397.049-.621-.682.528-1.46.793-2.344.793-1.422 0-2.083-.727-1.781-1.931.199-.793.732-1.362 1.546-1.665.402-.159.793-.225 1.792-.357 1.438-.172 1.632-.251 1.762-.768.142-.567-.166-.832-.958-.832-.818 0-1.216.251-1.513.952h-1.675c.459-1.401 1.661-2.129 3.525-2.129 1.019 0 1.743.212 2.139.609.353.357.391.687.158 1.612-.04.16-.043.173-.243.913-.063.251-.166.661-.323 1.229l-.12.477c-.229.912-.272 1.295-.204 1.718zm85.44-4.985h-1.729c-.309 0-.657.265-.733.569-.08.318.118.595.44.595h1.729zm-23.309 1.864c-.324.172-.569.239-1.33.332-1.028.145-1.41.383-1.557.964-.136.543.159.86.776.86.51 0 .999-.185 1.407-.528.291-.252.412-.464.521-.9zm-27.021-.065c-.326 1.295.071 2.062 1.063 2.062.979 0 1.748-.767 2.078-2.075.322-1.282-.071-2.063-1.037-2.063-1.005 0-1.775.767-2.104 2.076zm-11.86.065c-.325.172-.57.239-1.33.332-1.028.145-1.41.383-1.557.964-.136.543.159.86.776.86.51 0 .999-.185 1.407-.528.291-.252.411-.464.521-.9zm-15.65-.753c.336 0 .62-.224.706-.568.087-.344-.081-.582-.417-.582h-1.609l-.289 1.15zm-.739 2.513c.509 0 .864-.239.971-.662.106-.423-.115-.661-.638-.661h-1.502l-.333 1.323zm-6.21-1.76c-.325.172-.57.239-1.33.332-1.029.145-1.41.383-1.557.964-.136.543.159.86.776.86.51 0 .999-.185 1.407-.528.291-.252.411-.464.521-.9z" fill="#6f6f6f"/></g></svg>

<?xml version="1.0" encoding="UTF-8" standalone="no"?>
<!DOCTYPE svg PUBLIC "-//W3C//DTD SVG 1.1//EN" "http://www.w3.org/Graphics/SVG/1.1/DTD/svg11.dtd">
<svg width="100%" height="100%" viewBox="0 0 560 400" version="1.1" xmlns="http://www.w3.org/2000/svg" xmlns:xlink="http://www.w3.org/1999/xlink" xml:space="preserve" xmlns:serif="http://www.serif.com/" style="fill-rule:evenodd;clip-rule:evenodd;stroke-linejoin:round;stroke-miterlimit:1.41421;">
    <g transform="matrix(2.4161,0,0,2.4161,100.002,135.715)">
        <path id="Fill-1" d="M144.978,25.259L144.724,25.78C144.373,26.502 143.603,27.007 142.852,27.007L135.068,27.007C134.505,27.007 134.083,26.491 134.196,25.939L134.831,23.076C134.916,22.662 135.28,22.364 135.703,22.364L144.203,22.364C144.81,22.364 145.104,22.707 145.224,22.911C145.342,23.111 145.215,24.685 144.978,25.259ZM108.455,20.552C108.563,20.023 109.081,19.593 109.61,19.593L115.527,19.593C116.695,19.593 117.698,20.101 118.281,20.985C118.863,21.869 118.964,23.039 118.556,24.194L118.071,25.571C117.767,26.431 116.954,27.007 116.041,27.007L108.911,27.007C107.995,27.007 107.31,26.168 107.493,25.271L108.455,20.552ZM56.277,23.253C56.394,22.68 56.898,22.268 57.483,22.268L65.93,22.268C66.491,22.268 66.952,22.505 67.225,22.935C67.5,23.365 67.535,23.907 67.326,24.461L66.664,26.211C66.483,26.69 66.024,27.007 65.513,27.007L57.019,27.007C56.24,27.007 55.658,26.293 55.813,25.53L56.277,23.253ZM148.562,20.629C147.836,19.4 146.52,18.696 144.951,18.696L135.724,18.696L137.148,11.661C137.376,10.548 136.524,9.505 135.387,9.505C134.533,9.505 133.797,10.106 133.627,10.943L130.747,24.86C130.493,26.109 129.394,27.007 128.119,27.007L121.274,27.007L122.075,24.733C122.855,22.522 122.663,20.283 121.548,18.589C120.433,16.896 118.511,15.924 116.275,15.924L110.358,15.924C107.807,15.924 105.307,18.001 104.787,20.552L103.471,27.007L97.132,27.007C95.919,27.007 95.01,25.894 95.253,24.705L96.602,18.087C96.829,16.973 95.978,15.931 94.841,15.931C93.987,15.931 93.251,16.532 93.08,17.369L91.434,25.446C91.248,26.354 90.449,27.007 89.522,27.007L85.146,27.007C83.913,27.007 82.989,25.876 83.236,24.667L84.577,18.087C84.805,16.973 83.953,15.931 82.816,15.931C81.962,15.931 81.226,16.532 81.055,17.369L79.403,25.472C79.221,26.365 78.435,27.007 77.524,27.007L70.086,27.007L70.811,25.091C71.422,23.475 71.314,21.829 70.515,20.574C69.716,19.319 68.317,18.6 66.678,18.6L57.226,18.6L57.745,16.058C57.871,15.436 58.479,14.931 59.101,14.931L70.234,14.658C71.106,14.658 71.857,14.044 72.031,13.19C72.263,12.053 71.395,10.989 70.234,10.989L59.849,11.262C57.205,11.262 54.615,13.414 54.076,16.058L51.843,27.007L45.581,27.007C44.368,27.007 43.459,25.894 43.702,24.705L45.048,18.106C45.275,16.993 44.423,15.95 43.286,15.95C42.432,15.95 41.696,16.551 41.525,17.388L39.882,25.446C39.697,26.354 38.898,27.007 37.972,27.007L33.596,27.007C32.362,27.007 31.438,25.876 31.685,24.667L33.002,18.208C33.229,17.094 32.378,16.052 31.241,16.052C30.387,16.052 29.65,16.653 29.48,17.49L27.852,25.472C27.67,26.365 26.884,27.007 25.973,27.007L9.487,27.007C6.121,27.007 3.706,24.609 3.745,21.304C3.768,19.237 4.74,17.121 6.412,15.497C8.083,13.875 10.249,12.944 12.354,12.944L19.94,12.944C20.425,12.944 20.788,13.388 20.691,13.863L20.228,16.137C20,17.251 20.852,18.294 21.989,18.294C22.843,18.294 23.579,17.693 23.75,16.855L24.58,12.785C24.974,10.85 23.721,9.275 21.785,9.275L13.102,9.275C9.899,9.275 6.603,10.692 4.06,13.162C1.516,15.632 0.037,18.852 0,21.998C-0.057,27.026 3.618,30.675 8.738,30.675L102.723,30.675L101.256,37.869C101.029,38.982 101.88,40.025 103.017,40.025C103.871,40.025 104.607,39.424 104.778,38.587L106.129,31.963C106.282,31.214 106.941,30.675 107.706,30.675L142.104,30.675C144.489,30.675 146.934,29.073 148.05,26.78L148.328,26.21L148.367,26.124C149.034,24.595 149.287,21.858 148.562,20.629Z" style="fill:rgb(190,216,0);"/>
        <path id="Shape" d="M88.943,41.348L87.817,41.348C87.214,41.348 86.948,41.546 86.806,42.114L86.699,42.538C86.576,43.027 86.403,43.397 86.135,43.767L84.312,43.767C84.348,43.728 84.369,43.7 84.386,43.688C84.425,43.634 84.462,43.595 84.5,43.555C84.75,43.251 84.897,42.934 85.12,42.154C85.36,41.361 85.51,41.136 86.073,40.818C85.522,40.554 85.286,39.946 85.463,39.246C85.732,38.175 86.79,37.381 87.983,37.381L91.697,37.381L90.091,43.767L88.334,43.767L88.943,41.348ZM78.287,37.381L80.03,37.381L79.079,41.162L82.645,37.381L84.294,37.381L82.687,43.767L80.931,43.767L81.899,39.92L78.316,43.767L76.681,43.767L78.287,37.381ZM70.495,37.381L72.251,37.381L71.686,39.629L74.072,39.629L74.638,37.381L76.394,37.381L74.788,43.767L73.031,43.767L73.72,41.03L71.333,41.03L70.645,43.767L68.889,43.767L70.495,37.381ZM65.628,43.767C65.608,43.477 65.621,43.37 65.677,43.146C64.995,43.674 64.217,43.939 63.333,43.939C61.912,43.939 61.25,43.212 61.552,42.008C61.752,41.215 62.284,40.646 63.098,40.343C63.5,40.184 63.892,40.118 64.89,39.986C66.328,39.814 66.522,39.735 66.652,39.218C66.795,38.651 66.486,38.386 65.695,38.386C64.877,38.386 64.479,38.637 64.182,39.338L62.506,39.338C62.966,37.937 64.168,37.209 66.031,37.209C67.05,37.209 67.774,37.421 68.17,37.818C68.524,38.175 68.561,38.505 68.328,39.43C68.288,39.59 68.285,39.603 68.085,40.343C68.022,40.594 67.919,41.004 67.762,41.572L67.643,42.049C67.413,42.961 67.37,43.344 67.438,43.767L65.628,43.767ZM55.58,37.381L61.265,37.381L59.659,43.767L57.903,43.767L59.156,38.782L56.985,38.782L55.731,43.767L53.974,43.767L55.58,37.381ZM50.392,43.767L51.569,39.086L49.158,43.767L47.764,43.767L47.734,39.086L46.557,43.767L44.908,43.767L46.514,37.381L48.86,37.381L48.893,42.049L51.314,37.381L53.688,37.381L52.081,43.767L50.392,43.767ZM44.182,40.568C43.67,42.603 42.006,43.939 39.996,43.939C37.971,43.939 36.969,42.59 37.475,40.581C37.987,38.545 39.677,37.209 41.742,37.209C43.699,37.209 44.688,38.558 44.182,40.568ZM35.555,37.381L37.567,37.381L34.689,39.708L36.108,43.767L34.07,43.767L33.199,40.885L32.329,41.625L31.791,43.767L30.034,43.767L31.641,37.381L33.397,37.381L32.805,39.735L35.555,37.381ZM26.747,43.767C26.726,43.477 26.739,43.37 26.796,43.146C26.114,43.674 25.336,43.939 24.452,43.939C23.03,43.939 22.368,43.212 22.671,42.008C22.87,41.215 23.403,40.646 24.216,40.343C24.618,40.184 25.01,40.118 26.009,39.986C27.447,39.814 27.641,39.735 27.771,39.218C27.914,38.651 27.605,38.386 26.813,38.386C25.995,38.386 25.597,38.637 25.3,39.338L23.624,39.338C24.084,37.937 25.286,37.209 27.15,37.209C28.169,37.209 28.893,37.421 29.289,37.818C29.642,38.175 29.68,38.505 29.447,39.43C29.407,39.59 29.404,39.603 29.204,40.343C29.141,40.594 29.038,41.004 28.881,41.572L28.762,42.049C28.532,42.961 28.489,43.344 28.557,43.767L26.747,43.767ZM16.378,37.381L18.121,37.381L17.17,41.162L20.736,37.381L22.385,37.381L20.778,43.767L19.022,43.767L19.99,39.92L16.407,43.767L14.772,43.767L16.378,37.381ZM9.015,37.381L12.635,37.381C13.265,37.381 13.57,37.447 13.846,37.632C14.268,37.923 14.43,38.452 14.28,39.047C14.107,39.735 13.653,40.21 12.852,40.514C13.664,40.753 13.889,41.136 13.69,41.929C13.51,42.643 13.113,43.159 12.499,43.463C12.054,43.688 11.672,43.767 10.962,43.767L7.408,43.767L9.015,37.381ZM4.148,43.767C4.127,43.477 4.141,43.37 4.197,43.146C3.515,43.674 2.737,43.939 1.853,43.939C0.431,43.939 -0.23,43.212 0.072,42.008C0.271,41.215 0.804,40.646 1.618,40.343C2.02,40.184 2.411,40.118 3.41,39.986C4.848,39.814 5.042,39.735 5.172,39.218C5.314,38.651 5.006,38.386 4.214,38.386C3.396,38.386 2.998,38.637 2.701,39.338L1.026,39.338C1.485,37.937 2.687,37.209 4.551,37.209C5.57,37.209 6.294,37.421 6.69,37.818C7.043,38.175 7.081,38.505 6.848,39.43C6.808,39.59 6.805,39.603 6.605,40.343C6.542,40.594 6.439,41.004 6.282,41.572L6.162,42.049C5.933,42.961 5.89,43.344 5.958,43.767L4.148,43.767ZM89.588,38.782L87.859,38.782C87.55,38.782 87.202,39.047 87.126,39.351C87.046,39.669 87.244,39.946 87.566,39.946L89.295,39.946L89.588,38.782ZM66.279,40.646C65.955,40.818 65.71,40.885 64.949,40.978C63.921,41.123 63.539,41.361 63.392,41.942C63.256,42.485 63.551,42.802 64.168,42.802C64.678,42.802 65.167,42.617 65.575,42.274C65.866,42.022 65.987,41.81 66.096,41.374L66.279,40.646ZM39.258,40.581C38.932,41.876 39.329,42.643 40.321,42.643C41.3,42.643 42.069,41.876 42.399,40.568C42.721,39.286 42.328,38.505 41.362,38.505C40.357,38.505 39.587,39.272 39.258,40.581ZM27.398,40.646C27.073,40.818 26.828,40.885 26.068,40.978C25.04,41.123 24.658,41.361 24.511,41.942C24.375,42.485 24.67,42.802 25.287,42.802C25.797,42.802 26.286,42.617 26.694,42.274C26.985,42.022 27.105,41.81 27.215,41.374L27.398,40.646ZM11.748,39.893C12.084,39.893 12.368,39.669 12.454,39.325C12.541,38.981 12.373,38.743 12.037,38.743L10.428,38.743L10.139,39.893L11.748,39.893ZM11.009,42.406C11.518,42.406 11.873,42.167 11.98,41.744C12.086,41.321 11.865,41.083 11.342,41.083L9.84,41.083L9.507,42.406L11.009,42.406ZM4.799,40.646C4.474,40.818 4.229,40.885 3.469,40.978C2.44,41.123 2.059,41.361 1.912,41.942C1.776,42.485 2.071,42.802 2.688,42.802C3.198,42.802 3.687,42.617 4.095,42.274C4.386,42.022 4.506,41.81 4.616,41.374L4.799,40.646Z" style="fill:rgb(111,111,111);"/>
    </g>
</svg>
